X:1
T:Calling Now
T:Calling Now
T:Philip Paul Bliss
T:Philip Paul Bliss, 1873
T:Public Domain Courtesy of the Cyber Hymnal™
C:Philip Paul Bliss
Z:Public Domain
Z:Courtesy of the Cyber Hymnal™
%%score ( 1 2 ) 3
L:1/8
Q:1/4=170
M:6/4
K:F
V:1 treble 
V:2 treble 
V:3 bass 
V:1
 [Ac]6 [GB]4 [GB]2 | [FA]6 [CF]6 | [EG]6 [Ec]4 [GB]2 | [FA]12 | [FA]6 [CG]4 F2 | [FA]6 [FA]6 | %6
w: 1.~This lov- ing|Sav- ior|Stands pa- tient-|ly;|Tho’ oft re-|ject- ed,|
w: 2.~Oh, bound- less|mer- cy,|Free, free to|all!|Say, child of|er- ror,|
w: 3.~Tho’ all un-|wor- thy,|Come, now, come|home—|Say, while He’s|wait- ing,|
 [EG]4 [EG]2 [FA]4 [FG]2 | ([EG]6 [Ec]6) ||"^Refrain" [Fc]4 [Fc]2 [Fd]4 [Fc]2 | %9
w: Calls a- gain for|thee. *||
w: Heed the ten- der|call. *|Call- ing now for|
w: “Je- sus, dear, I|come.” *||
 [Fc]6 [FA]2 [GB]2 [Ac]2 | [Ac]4 [FA]2 [Ac]4 F2 | [EG]12 | [FA]4 [FA]2 [CG]4 F2 | %13
w: ||||
w: thee, prod- i- gal,|Call- ing now for|thee;|Thou hast wan- dered|
w: ||||
 [FB]4 [FA]2 [FA]2 [Fd]2 [Fc]2 | [Fc]4 [FA]2 [EA]4 [EG]2 | F12 |] %16
w: |||
w: far a- way, But He’s|call- ing now for|thee.|
w: |||
V:2
 x12 | x12 | x12 | x12 | x10 F2 | x12 | x12 | x12 || x12 | x12 | x10 F2 | x12 | x10 F2 | x12 | %14
 x12 | F12 |] %16
V:3
 [F,C]6 [F,C]4 [F,C]2 | [F,C]6 [F,A,]6 | [C,C]6 [C,C]4 [C,C]2 | [F,C]12 | [F,C]6 [F,B,]4 [F,A,]2 | %5
 [F,D]6 [F,C]6 | [G,C]4 [G,C]2 [G,=B,]4 [G,B,]2 | [C,C]6 [C,B,]6 || %8
 [F,A,]4 [F,A,]2 [F,B,]4 [F,A,]2 | [F,A,]6 [F,C]2 [F,C]2 [F,C]2 | [F,C]4 [F,C]2 [F,F]4 [A,,C]2 | %11
 [C,C]12 | [F,C]4 [F,C]2 [F,B,]4 [F,A,]2 | [F,D]4 [F,C]2 [F,C]2 [F,B,]2 [F,A,]2 | %14
 [F,A,]4 [F,C]2 [C,C]4 [C,B,]2 | [F,A,]12 |] %16

